X:1
T:Title
%%score { ( 1 3 ) | 2 }
L:1/8
M:4/4
K:C
V:1 treble nm="Grand Piano"
V:3 treble 
V:2 bass 
V:1
 z4 z2[Q:1/4=100] [CE]>[DF] | [EG]2 [Ec]2 [Fd]2 [Ec]2 | [EG]4 E2 C>D | E2 [FA]2 [EG]2 [CE]2 | %4
[M:3/4] [B,D]6 |[M:1/4] [CE]>[DF] |[M:4/4] [EG]2 [Ge]2 [^Ge]2 [Gd]2 | [Ac]4 A2 AA | %8
 G2 c2 [Dc]2 [FB]2 |[M:3/4] [Ec]6 |[M:1/4] G>G |[M:4/4] z2 D>E .F>d A>B | c6 z2 | c6 z2 | %14
 E2 E>E E2 c>d | e6 z2 | c6 z2 | A G3 c2 [FB]2 |[M:3/4] [Ec]6 |] %19
V:2
 z4 z2 [C,G,]>[C,G,] | [C,C]2 [C,G,]2 [C,G,]2 [C,G,]2 | [C,C]4 [C,G,C]2 [C,E,]>[C,F,C] | %3
 [C,G,C]2 [C,C]2 [C,C]2 [C,G,]2 |[M:3/4] [G,,G,]6 |[M:1/4] [C,G,]>[C,G,] | %6
[M:4/4] [C,C]2 [C,C]2 [E,B,]2 [E,B,]2 | [F,A,]4 [F,CF]2 [F,CF][F,CF] | %8
 [G,CE]2 [G,E]2 [G,,G,]2 [G,,G,]2 |[M:3/4] [C,G,]6 |[M:1/4] z2 | %11
[M:4/4] z2 [G,B,]>[G,C] .[G,D]2 z2 | z z/ [C,G,]/ [C,G,]>[C,G,] [C,G,]2 z2 | %13
 z2 [F,A,]>[F,A,] [F,A,]>[F,A,F] [F,C]>[F,C] | [C,C]2 [C,C]>[C,C] [C,C]2 z2 | %15
 z2 [C,C]>[C,C] [E,B,]>[E,B,] [E,B,]>[E,B,] | [F,A,]2 [F,C]>[F,C] [F,C]2[K:treble] [F,CG][F,CF] | %17
 [G,CF] [G,CE]3 [G,D]2[K:bass] [G,,G,]2 |[M:3/4] [C,G,]6 |] %19
V:3
 x8 | x8 | x8 | x8 |[M:3/4] x6 |[M:1/4] x2 |[M:4/4] x8 | x8 | x8 |[M:3/4] x6 |[M:1/4] x2 | %11
[M:4/4] G6 z2 | z z/ E/ E>E E2 c>c | z2 F>F F>d [Ac]>[FA] | G6 z2 | z2 G>G ^G>[Ge] [Ge]>[Gd] | %16
 A2 A>A A2 BA | x8 |[M:3/4] x6 |] %19

